X:14
T:What-Not
C: Sarah Gowan 2002 
M:3/4
K:C
P:Swing it
 "A"c^c =c^c =c^c | "G6"A2G2E2 | "A"c^c =c^c =c^c | "E7"e4E2 |
"A"c^c =c^c =c^c | "G6"A2G2E2 | "A"Ac ^ce AG | "A"A6 :|
"Am" e_e =ea ed |"Em7"c2A2E2 |"Am" AG AB cd | "E7"B3cd2 | "Am" eg ab ag | "C"e2d2c2 |
"Am"Ac de EG | "F"A6 | "Am" e_e =ea ed | "Em7"c2A2E2 | "Am"AG AB cd |
"E7"B6 | "Am" eg ab ag | "C"e2d2c2 | "G"Ac ^ce AG | "A"A6|]
